X:16983
T:Alman
C:John Dowland, arr. Frank Nordberg
O:England
R:Almain, allemande
Z:Transcribed by Frank Nordberg - http://www.musicaviva.com
F:http://abc.musicaviva.com/tunes/dowland-john/dow-alman01/dow-alman01-gtr2.abc
V:1 Program 1 24 up %Classical guitar
V:2 Program 1 24 merge up %Classical guitar
V:3 Program 1 24 merge %Classical guitar
V:4 Program 1 24 merge down %Classical guitar
M:C
L:1/8
Q:1/2=72
K:E -8va % G with capo on third fret
V:1
"^Capo III"B2|e2de f2g2|a2gfe2f2|g2f2e4|f6B2|
V:2
z2|B2z2B2B2|c2z2z4|z8|d6z2|
V:3
z2|E4D2z2|z4z2B2|B2B2B2^A2|B2B4z2|
V:4
z2|E,4B,2E2|A,2B,2C2D2|E2D2C4|B,4B,4|
%
V:1
e2def2g2|a2gfe2f2|g2f2e4|f8|
V:2
B2z2B2B2|c2z2z4|z8|d8|
V:3
E4D2z2|z4z2B2|B2B2B2^A2|B2B6|
V:4
E,4B,2E2|A,2B,2C2D2|E2D2C4|B,4B,4|
%
V:1
f2ff dBde|f6ba|g2ag fef2|e8|
V:2
d4z4|d6z2|B4B4|B8|
V:3
B4z4|B6z2|z8|G8|
V:4
B,8|B,2F2B,2z2|E,2A,2B,4|E,2E2E,4|
%
V:1
ff/f/ ff dBde|f6ba|g2ag fef2|e6B2|
V:2
d4z4|d6z2|B4B4|B6z2|
V:3
B4z4|B6z2|z8|G6z2|
V:4
B,8|B,4B,2z2|E,2A,2B,4|E,2E2E,4|
%
V:1
e2def2ef|g6ba|g2fg a2g2|f8|
V:2
B2z2B4|B6z2|B4cde2|d8|
V:3
E4D4|z8|z4z2B2|z8|
V:4
E,4B,4|E,2E2E,4|E,4A,2E,2|B,2F2B,4|
%
V:1
b3a gfe2|a3gf2ba|g2ag fef2|e8|
V:2
z8|c4d2z2|B4B4|B8|
V:3
z8|z8|z8|G8|
V:4
z2G,2C4|F2F,2B,2z2|E,2A,2B,4|E,2E2E,4|
%
V:1
b3a gfe2|a3gf4|g2fga2g2|f8|
V:2
z8|c4d4|B4cde2|d8|
V:3
z8|z8|z4z2B2|z8|
V:4
z2G,2C4|F2F,2B,4|E,4A,2E,2|B,2F2B,4|
%
V:1
b3a gfe2|a3gf2ba|gf/g/ a/g/f/e/ f/e/d/c/ d/e/f/d/|e=d/c/ B/A/G/F/ He2|]
V:2
z8|c4d2z2|B4z4|z4[HG2B2]|]
V:3
z8|z8|z8|z4[HB,2E2]|]
V:4
z2G,2C4|F2F,2B,2z2|E,8|E,4HE,2|]
W:
W:
W:  From Musica Viva - http://www.musicaviva.com
W:  the Internet center for free sheet music downloads.
